app/_includes/svgs/logo/logo-new-full.min.svg

<svg xmlns="http://www.w3.org/2000/svg" viewBox="0 0 454 77.4" enable-background="new 0 0 454 77.4"><path class="logo-island logo-island-2" fill="#E5C83D" d="M40.2 68.3l-19.1 1.7-5.7-66.6 19.1-1.7 5.7 66.6z"/><path class="logo-island logo-island-1" fill="#F47643" d="M22.2 30.8h-22.2l22.2-26.1v26.1z"/><path class="logo-island logo-island-3" fill="#F47643" d="M89.5 49.4l-42 5.2 35.9-54.6 6.1 49.4z"/><path class="logo-island logo-island-4" fill="#73C9BD" d="M80.7 68.4l-18.9-3 3-18.9 18.9 3-3 18.9z"/><path class="logo-island logo-island-5" fill="#E5C83D" d="M124.3 69.5l-19.1-.6 2.2-66.8 19.1.6-2.2 66.8z"/><path class="logo-island logo-island-7" fill="#F47643" d="M135.1 60.9l34.2-34.2c9.5 9.5 9.5 24.8 0 34.2-9.4 9.5-24.7 9.5-34.2 0z"/><path class="logo-island logo-island-6" fill="#73C9BD" d="M180 8.1l-24.5 41.8c-11.5-6.8-15.4-21.6-8.6-33.1 6.7-11.6 21.5-15.5 33.1-8.7z"/><path class="logo-island logo-island-8" fill="#E5C83D" d="M215.4 68.9l-19.1 1.8-6.3-66.5 19.1-1.8 4.7 49.5 15.9-1.5 1.6 17-15.9 1.5z"/><path class="logo-island logo-island-9" fill="#F47643" d="M262.4.6l16.9 32.9 16.9 32.9-27.3 2.6-27.3 2.6 10.4-35.5 10.4-35.5z"/><path class="logo-island logo-island-10" fill="#73C9BD" d="M303.6.5l54.9 68.8h-55v-68.8z"/><path class="logo-island logo-island-11" fill="#E5C83D" d="M358.2 77.4l-17.9-24.9 2.5-47.8 19.1 1-3.7 71.7z"/><path class="logo-island logo-island-12" fill="#F47643" d="M405.5 37.5c-1.8 18.4-18.2 31.8-36.5 30l6.6-66.5c18.3 1.7 31.7 18.1 29.9 36.5z"/><path class="logo-island logo-island-14" fill="#E5C83D" d="M409.9 60.9l34.2-34.2c9.5 9.5 9.5 24.8 0 34.2s-24.7 9.5-34.2 0z"/><path class="logo-island logo-island-13" fill="#73C9BD" d="M454 3.7l-12.4 46.8c-12.9-3.4-20.6-16.7-17.2-29.6s16.7-20.6 29.6-17.2z"/></svg>

<svg xmlns="http://www.w3.org/2000/svg" viewBox="0 0 454 77.4" enable-background="new 0 0 454 77.4"><path class="logo-island logo-island-2" fill="#E5C83D" d="M40.2 68.3L21.1 70 15.4 3.4l19.1-1.7 5.7 66.6z"/><path class="logo-island logo-island-1" fill="#F47643" d="M22.2 30.8H0L22.2 4.7v26.1z"/><path class="logo-island logo-island-3" fill="#F47643" d="M89.5 49.4l-42 5.2L83.4 0l6.1 49.4z"/><path class="logo-island logo-island-4" fill="#73C9BD" d="M80.7 68.4l-18.9-3 3-18.9 18.9 3-3 18.9z"/><path class="logo-island logo-island-5" fill="#E5C83D" d="M124.3 69.5l-19.1-.6 2.2-66.8 19.1.6-2.2 66.8z"/><path class="logo-island logo-island-7" fill="#F47643" d="M135.1 60.9l34.2-34.2c9.5 9.5 9.5 24.8 0 34.2-9.4 9.5-24.7 9.5-34.2 0z"/><path class="logo-island logo-island-6" fill="#73C9BD" d="M180 8.1l-24.5 41.8c-11.5-6.8-15.4-21.6-8.6-33.1 6.7-11.6 21.5-15.5 33.1-8.7z"/><path class="logo-island logo-island-8" fill="#E5C83D" d="M215.4 68.9l-19.1 1.8L190 4.2l19.1-1.8 4.7 49.5 15.9-1.5 1.6 17-15.9 1.5z"/><path class="logo-island logo-island-9" fill="#F47643" d="M262.4.6l16.9 32.9 16.9 32.9-27.3 2.6-27.3 2.6L252 36.1 262.4.6z"/><path class="logo-island logo-island-10" fill="#73C9BD" d="M303.6.5l54.9 68.8h-55V.5z"/><path class="logo-island logo-island-11" fill="#E5C83D" d="M358.2 77.4l-17.9-24.9 2.5-47.8 19.1 1-3.7 71.7z"/><path class="logo-island logo-island-12" fill="#F47643" d="M405.5 37.5c-1.8 18.4-18.2 31.8-36.5 30L375.6 1c18.3 1.7 31.7 18.1 29.9 36.5z"/><path class="logo-island logo-island-14" fill="#E5C83D" d="M409.9 60.9l34.2-34.2c9.5 9.5 9.5 24.8 0 34.2s-24.7 9.5-34.2 0z"/><path class="logo-island logo-island-13" fill="#73C9BD" d="M454 3.7l-12.4 46.8c-12.9-3.4-20.6-16.7-17.2-29.6S441.1.3 454 3.7z"/></svg>
